svg/fridge_variant.svg

<svg xmlns="http://www.w3.org/2000/svg" viewBox="0 0 24 24"><path d="M19 4v15c0 1.11-.89 2-2 2v1h-2v-1h-2.5V2H17a2 2 0 0 1 2 2M7 2h4.5v19H9v1H7v-1a2 2 0 0 1-2-2V4c0-1.1.9-2 2-2m3 8H7v4h3z"/></svg>

<?xml version="1.0" encoding="UTF-8"?><!DOCTYPE svg PUBLIC "-//W3C//DTD SVG 1.1//EN" "http://www.w3.org/Graphics/SVG/1.1/DTD/svg11.dtd"><svg xmlns="http://www.w3.org/2000/svg" xmlns:xlink="http://www.w3.org/1999/xlink" version="1.1" id="mdi-fridge-variant" width="24" height="24" viewBox="0 0 24 24"><path d="M19 4V19C19 20.11 18.11 21 17 21V22H15V21H12.5V2H17C18.11 2 19 2.9 19 4M7 2H11.5V21H9V22H7V21C5.9 21 5 20.11 5 19V4C5 2.9 5.9 2 7 2M10 10H7V14H10V10Z" /></svg>
